build/system/AddressBookOutline.svg

<svg xmlns="http://www.w3.org/2000/svg" fill="none" viewBox="0 0 24 24" focusable="false"><path d="M0 0H24V24H0z"/><path fill="#74767B" fill-rule="evenodd" d="M8.00022 3C6.34337 3 5.00022 4.34315 5.00022 6L5.00022 6.35012L3.64941 6.34967C3.28541 6.34967 2.99951 6.63569 2.99951 6.99969C2.99951 7.36369 3.28541 7.64972 3.64941 7.64972L5.00022 7.65012L5.00022 11.3501L3.64941 11.3497C3.28541 11.3497 2.99951 11.6357 2.99951 11.9997C2.99951 12.3637 3.28541 12.6497 3.64941 12.6497L5.00022 12.6501L5.00022 16.3501L3.64941 16.3497C3.28541 16.3497 2.99951 16.6357 2.99951 16.9997C2.99951 17.3637 3.28541 17.6497 3.64941 17.6497L5.00022 17.6501L5.00022 18C5.00022 19.6569 6.34337 21 8.00022 21L18.0002 21C19.6571 21 21.0002 19.6569 21.0002 18L21.0002 6C21.0002 4.34315 19.6571 3 18.0002 3L8.00022 3ZM18.0002 4.3L8.00022 4.3C7.06134 4.3 6.30022 5.06112 6.30022 6L6.30022 18C6.30022 18.9389 7.06134 19.7 8.00022 19.7L18.0002 19.7C18.9391 19.7 19.7002 18.9389 19.7002 18L19.7002 6C19.7002 5.06112 18.9391 4.3 18.0002 4.3ZM12.9937 6.64093C11.5721 6.63126 10.4593 7.862 10.6116 9.2754L10.7445 10.5084C10.8664 11.6404 11.8169 12.5016 12.9554 12.5119C14.1065 12.5222 15.0787 11.6597 15.2057 10.5156L15.3426 9.28305C15.4984 7.87995 14.4054 6.65052 12.9937 6.64093ZM13.9137 10.3722L14.0505 9.1396C14.1212 8.50303 13.6253 7.94525 12.9848 7.9409C12.3399 7.93651 11.835 8.49488 11.9041 9.13613L12.037 10.3691C12.0883 10.8453 12.4881 11.2076 12.967 11.2119C13.4513 11.2162 13.8602 10.8535 13.9137 10.3722ZM9.82392 14.8919C10.5162 14.0164 11.5709 13.5058 12.687 13.5058L13.3239 13.5058C14.4696 13.5058 15.5488 14.0437 16.2385 14.9586L16.4297 15.2122C17.1003 16.1018 16.4657 17.3749 15.3517 17.3749L10.6491 17.3749C9.52072 17.3749 8.89029 16.0727 9.59017 15.1876L9.82392 14.8919ZM12.687 14.8058C11.9684 14.8058 11.2894 15.1346 10.8437 15.6982L10.6099 15.9939L15.3517 16.0749L15.2004 15.7412C14.7564 15.1521 14.0615 14.8058 13.3239 14.8058L12.687 14.8058Z"/></svg>

<svg xmlns="http://www.w3.org/2000/svg" fill="none" viewBox="0 0 24 24" focusable="false"><path fill="#74767B" fill-rule="evenodd" d="M8 3C6.34 3 5 4.34 5 6v.35l-1.36-.01c-.36 0-.65.29-.65.65 0 .37.29.65.65.65L5 7.65v3.7l-1.36-.01c-.36 0-.65.29-.65.65 0 .37.29.65.65.65l1.36.01v3.7l-1.36-.01c-.36 0-.65.29-.65.65 0 .37.29.65.65.65l1.36.01V18c0 1.65 1.34 3 3 3h10c1.65 0 3-1.35 3-3V6c0-1.66-1.35-3-3-3zm10 1.29H8c-.94 0-1.7.77-1.7 1.71v12c0 .93.76 1.7 1.7 1.7h10c.93 0 1.7-.77 1.7-1.7V6c0-.94-.77-1.71-1.7-1.71m-5.01 2.35c-1.42-.01-2.54 1.22-2.38 2.63l.13 1.23c.12 1.14 1.07 2 2.21 2.01 1.15.01 2.12-.86 2.25-2l.14-1.23a2.38 2.38 0 0 0-2.35-2.64m.92 3.73.14-1.24c.07-.63-.43-1.19-1.07-1.19a1.07 1.07 0 0 0-1.08 1.19l.13 1.23a.945.945 0 0 0 1.88.01m-4.09 4.52a3.64 3.64 0 0 1 2.86-1.39h.64c1.14 0 2.22.54 2.91 1.45l.19.26c.68.89.04 2.16-1.07 2.16h-4.71c-1.12 0-1.75-1.3-1.05-2.19zm2.86-.09c-.72 0-1.4.33-1.84.89l-.24.3 4.75.08-.15-.33c-.45-.59-1.14-.94-1.88-.94z"/></svg>
